X:14
T:Bourree "en passant la riviere"
I:last changed 14/2/2016
F:http://www.campin.me.uk/Music/Edinbal.abc
M:2/4
L:1/8
K:G
d|G>A Bc|d2 d2 |e>f ge|d>c BA|\
  G>A Bc|d2 d2 |e>f ge|d3   :|
d|B>G Bd|c>B AB|c>B ce|d>c Bd|\
  B>G Bd|c>B AB|cd  ef|g3   :|

